icons/Mint-Dark.svg

<svg width="256" height="256" viewBox="0 0 256 256" fill="none" xmlns="http://www.w3.org/2000/svg">
<g clip-path="url(#clip0_33_903)">
<path d="M196 0H60C26.8629 0 0 26.8629 0 60V196C0 229.137 26.8629 256 60 256H196C229.137 256 256 229.137 256 196V60C256 26.8629 229.137 0 196 0Z" fill="#242938"/>
<g clip-path="url(#clip1_33_903)">
<path d="M127.5 215C175.825 215 215 175.825 215 127.5C215 79.1751 175.825 40 127.5 40C79.1751 40 40 79.1751 40 127.5C40 175.825 79.1751 215 127.5 215Z" fill="white"/>
<path d="M127.5 201.328C168.274 201.328 201.328 168.274 201.328 127.5C201.328 86.7259 168.274 53.6719 127.5 53.6719C86.7259 53.6719 53.6719 86.7259 53.6719 127.5C53.6719 168.274 86.7259 201.328 127.5 201.328Z" fill="#69B53F"/>
<path d="M79.6484 83.0664V144.59C79.7168 159.697 91.8848 171.865 106.992 171.934H148.008C163.115 171.865 175.283 159.697 175.352 144.59V110.41C175.283 99.1309 166.123 89.9707 154.844 89.9023C149.785 89.9023 144.932 91.8164 141.172 95.3027C137.412 91.8848 132.559 89.9707 127.5 89.9023C116.221 89.9707 107.061 99.1309 106.992 110.41V144.59H120.664V110.41C120.664 106.65 123.74 103.574 127.5 103.574C131.26 103.574 134.336 106.65 134.336 110.41V144.59H148.008V110.41C148.008 106.65 151.084 103.574 154.844 103.574C158.604 103.574 161.68 106.65 161.68 110.41V144.59C161.748 152.109 155.664 158.193 148.213 158.262C148.145 158.262 148.076 158.262 148.008 158.262H106.992C99.4727 158.33 93.3887 152.246 93.3203 144.795C93.3203 144.727 93.3203 144.658 93.3203 144.59V83.0664H79.6484Z" fill="#F8F8F8"/>
</g>
</g>
<defs>
<clipPath id="clip0_33_903">
<rect width="256" height="256" fill="white"/>
</clipPath>
<clipPath id="clip1_33_903">
<rect width="175" height="175" fill="white" transform="translate(40 40)"/>
</clipPath>
</defs>
</svg>

<svg xmlns="http://www.w3.org/2000/svg" width="256" height="256" fill="none" viewBox="0 0 256 256"><g clip-path="url(#a)"><path fill="#242938" d="M196 0H60A60 60 0 0 0 0 60v136a60 60 0 0 0 60 60h136a60 60 0 0 0 60-60V60a60 60 0 0 0-60-60"/><g clip-path="url(#b)"><path fill="#fff" d="M127.5 215a87.5 87.5 0 1 0 0-175 87.5 87.5 0 0 0 0 175"/><path fill="#69B53F" d="M127.5 201.33a73.83 73.83 0 1 0 0-147.66 73.83 73.83 0 0 0 0 147.66"/><path fill="#F8F8F8" d="M79.65 83.07v61.52a27.43 27.43 0 0 0 27.34 27.34h41.02a27.43 27.43 0 0 0 27.34-27.34v-34.18a20.66 20.66 0 0 0-20.5-20.5c-5.06 0-9.92 1.9-13.68 5.4a20.7 20.7 0 0 0-13.67-5.4 20.66 20.66 0 0 0-20.5 20.5v34.18h13.66v-34.18a6.86 6.86 0 0 1 6.84-6.84 6.86 6.86 0 0 1 6.84 6.84v34.18H148v-34.18a6.86 6.86 0 0 1 6.83-6.84 6.86 6.86 0 0 1 6.84 6.84v34.18a13.6 13.6 0 0 1-13.47 13.67H107a13.6 13.6 0 0 1-13.67-13.47V83.07z"/></g></g><defs><clipPath id="a"><path fill="#fff" d="M0 0h256v256H0z"/></clipPath><clipPath id="b"><path fill="#fff" d="M40 40h175v175H40z"/></clipPath></defs></svg>
